X:46
T:Adam Buckham, O!
Z:Jack Campin, http://www.campin.me.uk/
S:Northumbrian Minstrelsy
M:C
L:1/8
K:D
G|     F A (A`c) (d`A)                              \
                       (AF)|     G B  B c  d3
z|     c e  e f  (g`e) (ed)|                        \
                                 c A  B c  d3     ||
z|({de}f2)  e d   c A  (Ac)|                        \
                            ({Bc}d2)  c B  A F (FA)|
  ({GA}B2)  A G   F A  (dA)|                        \
                                 B g (e`c) d2     |]

